svg/u1f537.svg

<svg viewBox="0 0 128 128" xmlns="http://www.w3.org/2000/svg">
  <g>
    <path d="M69.54,6.37l52.2,52c2.99,3.13,2.9,8.08-0.2,11.1l-52,52.2c-3.12,3.12-8.18,3.12-11.3,0l-52-52.2 c-3.04-3.04-3.13-7.95-0.2-11.1l52.2-52C61.36,3.25,66.42,3.25,69.54,6.37z" fill="#1976D2"/>
    <path d="M64.64,10.47l48.5,48.4c2.79,2.89,2.71,7.49-0.18,10.28c-0.01,0.01-0.01,0.01-0.02,0.02l-48.4,48.5 c-2.9,2.9-7.59,2.9-10.49,0.01c0,0,0,0-0.01-0.01l-48.3-48.5c-2.9-2.79-2.99-7.39-0.21-10.29c0,0,0,0,0.01-0.01l48.6-48.4 C57.03,7.57,61.73,7.56,64.64,10.47C64.63,10.46,64.64,10.46,64.64,10.47z" fill="#2196F3"/>
    <path d="M52.84,17.67c-1.6,1.1-33.1,32.3-33.1,32.3s-2.6,2.3-0.8,4.7c1.7,2.2,4.3,1.1,5.6-0.1 s29.7-29,30.9-30.4c1.19-1.59,1.42-3.69,0.6-5.5C55.24,17.07,53.94,16.87,52.84,17.67z" fill="#90CAF9"/>
    <circle cx="15.44" cy="60.48" r="3.3" fill="#90CAF9"/>
  </g>
</svg>

<svg viewBox="0 0 128 128" xmlns="http://www.w3.org/2000/svg">
  <defs/>
  <path d="M69.54,6.37 L121.74,58.37 C124.73,61.5 124.64,66.45 121.54,69.47 L69.54,121.67 C66.42,124.79 61.36,124.79 58.24,121.67 L6.24,69.47 C3.2,66.43 3.11,61.52 6.04,58.37 L58.24,6.37 C61.36,3.25 66.42,3.25 69.54,6.37 Z" fill="#1976D2"/>
  <path d="M64.64,10.47 L113.14,58.87 C115.93,61.76 115.85,66.36 112.96,69.15 C112.95,69.16 112.95,69.16 112.94,69.17 L64.54,117.67 C61.64,120.57 56.95,120.57 54.05,117.68 C54.05,117.68 54.05,117.68 54.04,117.67 L5.74,69.17 C2.84,66.38 2.75,61.78 5.53,58.88 C5.53,58.88 5.53,58.88 5.54,58.87 L54.14,10.47 C57.03,7.57 61.73,7.56 64.64,10.47 C64.63,10.46 64.64,10.46 64.64,10.47 Z" fill="#2196F3"/>
  <path d="M52.84,17.67 C51.24,18.77 19.74,49.97 19.74,49.97 C19.74,49.97 17.14,52.27 18.94,54.67 C20.64,56.87 23.24,55.77 24.54,54.57 C25.84,53.37 54.24,25.57 55.44,24.17 C56.63,22.58 56.86,20.48 56.04,18.67 C55.24,17.07 53.94,16.87 52.84,17.67 Z" fill="#90CAF9"/>
  <path d="M18.74,60.48 A3.3 3.3 0 1 1 12.14,60.48 A3.3 3.3 0 1 1 18.74,60.48 Z" fill="#90CAF9"/>
</svg>
